X:1
T:Title
%%score { ( 1 3 ) | ( 2 4 ) }
L:1/8
Q:1/4=100
M:6/8
K:F
V:1 treble nm="Grand Piano"
V:3 treble 
V:2 bass 
V:4 bass 
V:1
 c2 d c2 F | [CFA]2 [B,EG] [A,F]3 | [B,FB]2 [Gd] [Fc]2 [CFA] | E3- [Ec]3 | c2 d c2 [CF] | %5
w: Ira~D.~Sankey * * *|||||
 [CEA]2 [B,EG] z2 d | c2 A [CEA]2 [B,EG] | [A,F]6 | [EG]2 [EG] [Ec]2 [EG] | A2 B c3 | c2 c d2 =B | %11
w: ||||||
 [Ec]6 | c2 d c2 A | f2 [Fd] [Fc]3 | [CFA]2 [DFB] [CFA]2 [B,CG] | [A,CF]6 |] %16
w: |||||
V:2
 [F,A,F]2 [F,B,F] [F,A,F]2 [F,A,] | C,2 C, F,3 | D,2 [B,,B,] [F,A,]2 F, | z3 B,3 | %4
 [F,A,F]2 [F,B,F] [F,A,F]2 A,, | C,2 C, [D,A,]2 [B,,B,] | A,2 C C,2 C, | F,6 | %8
 [C,C]2 [C,C] [C,G,]2 [C,C] | [F,CF]2 [F,G,F] [F,A,F]3 | [G,E]2 [G,E] [G,=B,F]2 [G,DF] | C3 z3 | %12
 [F,A,F]2 [F,B,F] [F,A,F]2 [F,CF] | [B,,DF]2 [D,B,] [F,A,]3 | C,2 C, C,2 C, | F,6 |] %16
V:3
 x6 | x6 | x6 | [CG]3 z3 | x6 | z3 F3 | F3 z3 | x6 | x6 | x6 | x6 | z3 .B,3 | x6 | x6 | x6 | x6 |] %16
V:4
 x6 | x6 | x6 | C,6 | x6 | x6 | C,3 z3 | x6 | x6 | x6 | x6 | C,6 | x6 | x6 | x6 | x6 |] %16

